X:1
T:Glory to God
T:Ere zij God
T:Tune: F. A. Schultz, c. 1870 Text under copyright; for copyrighted material see Psalter Hymnal 214
T:PM ERE ZIJ GOD www.hymnary.org/text/glory_to_god_glory_to_god_in_the_highest
T:Glory to God Ere zij God
T:This tune is in the public domain. You may freely use this score for personal and congregational worship. If you reproduce the score, please credit Hymnary.org as the source. 
T:This tune is in the public domain. You may freely use this score for personal and congregational worship. If you reproduce the score, please credit Hymnary.org as the source. 
T:This tune is in the public domain. You may freely use this score for personal and congregational worship. If you reproduce the score, please credit Hymnary.org as the source. 
T:This tune is in the public domain. You may freely use this score for personal and congregational worship. If you reproduce the score, please credit Hymnary.org as the source. 
Z:This tune is in the public domain. You may freely use this score for personal and congregational worship. If you reproduce the score, please credit Hymnary.org as the source.
%%score ( 1 2 ) ( 3 4 )
L:1/8
M:4/4
K:D
V:1 treble nm="SOPRANO ALTO" snm="S. A."
V:2 treble 
V:3 bass nm="TENOR BASS" snm="T. B."
V:4 bass 
V:1
 A4 A2 G2 | F8 | A4 A2 G2 | F6 AA | B2 B2 z2 AA | B2 B2 z2 AA | (B4 c4) | d8 | A4 G2 F2 | (F4 E4) | %10
 (E2 F2) G2 A2 | (G4 F2) EE | (F2 G2) A2 F2 | (B4 A2) G2 | (F4 E4) |1 D8 | A4 A2 A2 | A4 B2 c2 | %18
 d4 A4 | d4 d2 d2 ||"^Page 2" c4 d2 B2 | (A4 ^G4) | A8 | (D3 C) D2 E2 | %24
 (F3"^Glory to God   Ere zij God" E) D4 | (F3 E) F2 G2 | (A3 G) F4 | E4 E2 E2 | (E4 E4) | %29
 (A3 ^G) A2 B2 | (c3 B) A2 AA | A4 A2 AA | A4 A2 A2 | A4 d4 | c2 A2 z2 dd | c2 A2 z ddd | %36
 c2 A2 z AAB |"^Page 3" (c4 B4) | A8 | A4 A2 G2 | F8 | A4 A2 G2 | %42
"^Glory to God   Ere zij God" F6 AA | B2 B2 z2 AA | B2 B2 z2 AA | (B4 c4) | d8 | A4 G2 F2 | F4 E4 | %49
 (E2 F2) G2 A2 | (G4 F2) EE | (F2 G2) A2 F2 | (B4 A2) G2 | (F4 E4) | D8 | (E2 F2 G2 A2) | F8 | %57
 (F4 E4) | D8 |] %59
V:2
 D4 C2 C2 | D8 | D4 C2 C2 | D6 FF | G2 G2 x2 FF | G2 G2 x2 FF | G8 | F8 | F4 E2 D2 | (D4 C4) | %10
 (C2 D2) C2 C2 | (C2 (E2) D2) CC | (D2 C2) D2 D2 | D6 C2 | (D4 C4) |1 D8 | A4 A2 A2 | C4 D2 G2 | %18
 F4 F4 | F4 F2 E2 || E4 F2 F2 | (E4 D4) | C8 | (D3 C) D2 E2 | (F3 E) D4 | (D3 C) D2 E2 | %26
 (F3 E) D4 | C4 D2 D2 | (C4 C4) | E4 E2 E2 | (E3 D) C2 AA | (C2 D2) E2 CC | (D2 G2) F2 E2 | %33
 F4 ^G4 | E2 C2 x2 FF | E2 C2 x FFF | E2 C2 x CC^D | (E4 =D4) | C8 | D4 C2 C2 | D8 | D4 C2 C2 | %42
 D6 FF | G2 G2 x2 FF | G2 G2 x2 FF | G8 | F8 | F4 E2 D2 | D4 C4 | (C2 D2) C2 C2 | (E4 D2) CC | %51
 (D2 E2) F2 D2 | (D4 ^D2) E2 | (=D6 C2) | D8 | (C2 D2 E2 C2) | D8 | (D4 C4) | A,8 |] %59
V:3
 F,4 E,2 A,2 | A,8 | F,4 E,2 A,2 | A,6 DD | D2 D2 z2 DD | D2 D2 z2 DD | (D4 A,4) | A,8 | %8
 A,4 A,2 A,2 | (A,4 A,4) | (G,2 F,2) E,2 E,2 | (A,4 A,2) A,A, | A,4 A,2 A,2 | (G,4 F,2) G,2 | %14
 (A,4 G,4) |1 F,8 | A,4 A,2 A,2 | A,4 A,2 A,2 | A,4 D4 | A,4 B,2 ^G,2 || A,4 A,2 D2 | (C4 B,4) | %22
 A,8 | (F,3 E,) F,2 G,2 | (A,3 G,) F,4 | (A,3 G,) A,2 A,2 | D4 A,4 | A,4 ^G,2 G,2 | (A,4 A,4) | %29
 (A,3 B,) A,2 ^G,2 | (A,3 ^G,) A,2 A,A, | A,4 A,2 A,A, | A,4 A,2 A,2 | D4 B,4 | A,2 A,2 z2 A,A, | %35
 A,2 A,2 z A,A,A, | A,2 A,2 z A,A,A, | (A,6 ^G,2) | A,8 | F,4 E,2 A,2 | A,8 | F,4 E,2 A,2 | %42
 A,6 DD | D2 D2 z2 DD | D2 D2 z2 DD | (D4 A,4) | A,8 | A,4 A,2 A,2 | (A,4 A,4) | A,4 A,2 A,2 | %50
 (A,4 A,2) A,A, | (A,2 B,2) =C2 C2 | B,6 B,2 | (A,4 G,4) | F,8 | A,8 | A,8 | (A,4 G,4) | F,8 |] %59
V:4
 D,4 A,,2 A,,2 | D,8 | D,4 A,,2 A,,2 | D,6 D,D, | G,2 G,2 x2 D,D, | G,2 G,2 x2 D,D, | (G,4 E,4) | %7
 D,8 | D,4 C,2 D,2 | (A,,4 A,,4) | A,,4 A,,2 A,,2 | (A,,2 (C,2) D,2) A,,A,, | (D,2 E,2) F,2 D,2 | %13
 (G,,4 D,2) E,2 | (D,4 A,,4) |1 D,8 | A,4 A,2 A,2 | G,4 F,2 E,2 | D,4 D,4 | D,4 B,,2 E,2 || %20
 A,,4 D,2 D,2 | E,8 | A,,8 | D,4 D,2 D,2 | D,4 D,4 | D,4 D,2 D,2 | D,4 D,4 | A,,4 B,,2 E,2 | %28
 (A,,4 A,,4) | (C,3 D,) C,2 E,2 | A,,4 A,,2 A,A, | (A,,2 B,,2) C,2 G,G, | (F,2 E,2) D,2 C,2 | %33
 D,4 E,4 | A,,2 A,,2 x2 D,D, | A,,2 A,,2 x D,F,D, | A,,2 A,,2 x F,F,F, | E,8 | A,,8 | %39
 D,4 A,,2 A,,2 | D,8 | D,4 A,,2 A,,2 | D,6 D,D, | G,2 G,2 x2 D,D, | G,2 G,2 x2 D,D, | (G,4 E,4) | %46
 D,8 | D,4 C,2 D,2 | (D,2 (F,2) A,4) | (G,2 F,2) E,2 A,,2 | (C,4 D,2) A,,A,, | D,4 D,2 D,2 | %52
 G,,6 G,,2 | A,,8 | D,8 | A,,8 | D,8 | A,,8 | D,8 |] %59

